X: 305788
M: 6/8
L: 1/8
K: C
c2c cBe | e3 c2c | def GAB | cec GEG |\
c2c cBc | e3 c2c | def GAB | c3 H|]
g2g |\
g2g ede | c2c GAB | GAB GAB | GAB c2g |\
g2g ede | c2c GAB | GAB GAB | "^D.C."c3 |]
EEE |\


